X:1
T:We Are Pilgrims of a Day
T:We Are Pilgrims of a Day
T:Robert Lowry
T:Robert Lowry, 1887
T:Public Domain Courtesy of the Cyber Hymnal™
T:Public Domain Courtesy of the Cyber Hymnal™
C:Robert Lowry
Z:Public Domain
Z:Courtesy of the Cyber Hymnal™
%%score ( 1 2 ) ( 3 4 )
L:1/8
Q:1/4=115
M:6/8
K:G
V:1 treble 
V:2 treble 
V:3 bass 
V:4 bass 
V:1
 [B,D]2 [B,D] [B,D]2 [B,D] | (DG)[CA] [DB]3 | [DA]2 [DA] [DA]3 | [DB]2 [DB] [DB]3 | %4
w: 1.~We are pil- grims|of * a day,|Home- ward bound,|home- ward bound;|
w: 2.~We are hap- py|in * the Lord,|Trav’l- ing on,|trav’l- ing on;|
w: 3.~Sin and sor- row|here * be- low,|Soon will end,|soon will end;|
w: 4.~Work- ing all the|way * a- long,|Rest will come,|rest will come;|
 [B,D]2 [B,D] [B,D]2 [B,D] | ([B,D][DG])[DA] B3 | [FA]2 [FA] [FB]2 [FA] | G6 || %8
w: Sing- ing on our|cheer- * ful way,|We are home- ward|bound.|
w: Trust- ing in His|ho- * ly Word,|We are trav’l- ing|on.|
w: In the land to|which * we go,|Toil and care will|end.|
w: Light- en work with|pray’r * and song,|Bless- èd rest will|come.|
"^Refrain" [Fd]3 [FA]3 | ([Ac][GB])[FA] G3 | [FA]2 [FA] [FA]2 [FA] | [GB]3 [Gd]3 | [Fd]3 [FA]3 | %13
w: |||||
w: |||||
w: On- ward,|up- * ward still,|O ye hope- ful|pil- grims;|For- ward,|
w: |||||
 ([Ac][GB])[FA] G3 | [GB]2 [GB] (^cB)[Gc] | [Fd]3- [Fd]2 [Ac] | [GB]2 [GB] [GB]2 [DA] | %17
w: ||||
w: ||||
w: fear * no ill,|yon- der is * our|home; * We|jour- ney, hand in|
w: ||||
 [DG]3- [DG]2 [DG] | [Dc]2 [Dc] [Dc]2 [DB] | [DA]3- [DA]2 [DA] | [DB]2 [DB] [DB]2 [=Fd] | %21
w: ||||
w: ||||
w: hand, * To|Ca- naan’s hap- py|land; * O|come, ye friends and|
w: ||||
 [Ed] [Ec]3 z [EA] | [DG]2 [DG] [GB]2 [FA] | G3- G2 |] %24
w: |||
w: |||
w: neigh- bors, And|join the pil- grim|band. *|
w: |||
V:2
 x6 | B,2 x4 | x6 | x6 | x6 | x3 (D2 G) | x6 | G6 || x6 | x3 G3 | x6 | x6 | x6 | x3 G3 | x3 G2 x | %15
 x6 | x6 | x6 | x6 | x6 | x6 | x6 | x6 | G3- G2 |] %24
V:3
 [G,,G,]2 [G,,G,] [G,,G,]2 [G,,G,] | [G,,G,]2 [G,,G,] [G,,G,]3 | [D,F,]2 [D,F,] [D,F,]3 | %3
 G,2 G, G,3 | [G,,G,]2 [G,,G,] [G,,G,]2 [G,,G,] | G,2 [D,F,] (G, B,D) | [D,C]2 [D,C] [D,D]2 [D,C] | %7
 [G,B,]6 || [D,A,]3 [D,D]3 | [D,D]2 [D,C] [G,B,]3 | [D,D]2 [D,D] [D,D]2 [D,D] | [G,D]3 [G,B,]3 | %12
 [D,A,]3 [D,D]3 | [D,D]2 [D,C] [G,B,]3 | [G,D]2 [E,E] [A,E]2 [A,E] | [D,D]3- [D,D]2 [F,D] | %16
 [G,D]2 [G,D] [G,D]2 [G,C] | [G,B,]3- [G,B,]2 [G,B,] | [D,A,]2 [D,A,] [D,A,]2 [D,G,] | %19
 [D,F,]3- [D,F,]2 [D,F,] | G,2 G, G,2 [B,,G,] | [C,G,] [C,G,]3 z [C,C] | %22
 [D,B,]2 [D,B,] [D,D]2 [D,C] | [G,,B,]3- [G,,B,]2 |] %24
V:4
 x6 | x6 | x6 | G,2 G, G,3 | x6 | (G,,B,,) G,3 x | x6 | x6 || x6 | x6 | x6 | x6 | x6 | x6 | x6 | %15
 x6 | x6 | x6 | x6 | x6 | G,2 G, G,2 x | x6 | x6 | x5 |] %24

